app/assets/images/payment_icons/scalapay.svg

<svg xmlns="http://www.w3.org/2000/svg" role="img" viewBox="0 0 38 24" width="38" height="24" aria-labelledby="pi-scalapay">
<title id="pi-scalapay">Scalapay</title>
<path d="M35 0H3C1.34315 0 0 1.34315 0 3V21C0 22.6569 1.34315 24 3 24H35C36.6569 24 38 22.6569 38 21V3C38 1.34315 36.6569 0 35 0Z" fill="#F7CBCF"/>
<path fill-rule="evenodd" clip-rule="evenodd" d="M4.0583 11.3872C3.9775 11.2946 3.98109 11.1562 4.06659 11.0678L4.97689 10.1273C5.07086 10.0302 5.22736 10.0302 5.32133 10.1273L6.01705 10.8461C6.11103 10.9432 6.26752 10.9432 6.3615 10.8461L7.0373 10.1479C7.13127 10.0508 7.28777 10.0508 7.38174 10.1479L8.28881 11.0851C8.37427 11.1734 8.37791 11.3117 8.2972 11.4043L6.36707 13.6187C6.27187 13.7279 6.10122 13.728 6.00595 13.6188L4.0583 11.3872ZM9.31473 12.9175L9.67758 12.3612C9.86765 12.5407 10.1614 12.6483 10.4436 12.6483C10.6452 12.6483 10.8007 12.5467 10.8007 12.4031C10.8007 11.9665 9.4472 12.122 9.4472 11.189C9.4472 10.6328 9.96556 10.2859 10.5185 10.2859C10.8813 10.2859 11.2787 10.4294 11.463 10.5789L11.1117 11.1411C10.9677 11.0335 10.7776 10.9438 10.5761 10.9438C10.3687 10.9438 10.1959 11.0275 10.1959 11.177C10.1959 11.5538 11.5494 11.4043 11.5494 12.4091C11.5494 12.9653 11.0253 13.3062 10.4378 13.3062C10.0519 13.3062 9.64302 13.1687 9.31473 12.9175ZM14.1988 12.2057L14.7747 12.6543C14.4465 13.1089 14.0318 13.3062 13.5077 13.3062C12.6437 13.3062 12.0102 12.6364 12.0102 11.799C12.0102 10.9557 12.661 10.2859 13.5134 10.2859C13.9972 10.2859 14.4292 10.5191 14.6884 10.866L14.1585 11.3505C14.0087 11.1471 13.7841 11.0036 13.5134 11.0036C13.0815 11.0036 12.7589 11.3565 12.7589 11.799C12.7589 12.2536 13.0757 12.5885 13.5307 12.5885C13.8359 12.5885 14.0778 12.3971 14.1988 12.2057ZM17.2801 12.2297V11.3624C17.1246 11.1471 16.877 11.0036 16.589 11.0036C16.1513 11.0036 15.8691 11.3804 15.8691 11.799C15.8691 12.2536 16.1858 12.5885 16.6063 12.5885C16.8885 12.5885 17.1361 12.445 17.2801 12.2297ZM18.0289 10.3457V13.2464H17.3089V13.0132C17.0786 13.2165 16.8136 13.3062 16.5314 13.3062C16.1167 13.3062 15.7251 13.1148 15.4774 12.8158C15.2585 12.5526 15.1203 12.1938 15.1203 11.799C15.1203 10.9438 15.7308 10.2859 16.4911 10.2859C16.8079 10.2859 17.0901 10.3935 17.3089 10.5789V10.3457H18.0289ZM19.6415 9V13.2464H18.8928V9H19.6415ZM22.4349 12.2297V11.3624C22.2794 11.1471 22.0317 11.0036 21.7438 11.0036C21.306 11.0036 21.0238 11.3804 21.0238 11.799C21.0238 12.2536 21.3406 12.5885 21.761 12.5885C22.0433 12.5885 22.2909 12.445 22.4349 12.2297ZM23.1836 10.3457V13.2464H22.4637V13.0132C22.2333 13.2165 21.9684 13.3062 21.6862 13.3062C21.2715 13.3062 20.8798 13.1148 20.6322 12.8158C20.4133 12.5526 20.2751 12.1938 20.2751 11.799C20.2751 10.9438 20.8856 10.2859 21.6458 10.2859C21.9626 10.2859 22.2448 10.3935 22.4637 10.5789V10.3457H23.1836ZM24.0476 14.6818V10.3457H24.7675V10.5789C24.9864 10.3935 25.2686 10.2859 25.5854 10.2859C26.3456 10.2859 26.9561 10.9438 26.9561 11.799C26.9561 12.1938 26.8236 12.5526 26.6048 12.8158C26.3571 13.1148 25.9597 13.3062 25.545 13.3062C25.2628 13.3062 25.0209 13.2225 24.7963 13.0431V14.6818H24.0476ZM24.7963 11.3624V12.2297C24.9403 12.445 25.1879 12.5885 25.4702 12.5885C25.8906 12.5885 26.2074 12.2536 26.2074 11.799C26.2074 11.3804 25.9252 11.0036 25.4874 11.0036C25.1995 11.0036 24.9518 11.1471 24.7963 11.3624ZM29.5767 12.2297V11.3624C29.4212 11.1471 29.1735 11.0036 28.8856 11.0036C28.4478 11.0036 28.1656 11.3804 28.1656 11.799C28.1656 12.2536 28.4824 12.5885 28.9028 12.5885C29.185 12.5885 29.4327 12.445 29.5767 12.2297ZM30.3254 10.3457V13.2464H29.6055V13.0132C29.3751 13.2165 29.1102 13.3062 28.828 13.3062C28.4133 13.3062 28.0216 13.1148 27.774 12.8158C27.5551 12.5526 27.4169 12.1938 27.4169 11.799C27.4169 10.9438 28.0274 10.2859 28.7876 10.2859C29.1044 10.2859 29.3866 10.3935 29.6055 10.5789V10.3457H30.3254ZM32.0763 14.6818H31.293L32.0648 12.9533L30.815 10.3457H31.6386L32.4565 12.0861L33.2109 10.3457H34L32.0763 14.6818Z" fill="#272727"/>
</svg>

<svg viewBox="0 0 38 24" role="img" width="38" height="24" fill="none" xmlns="http://www.w3.org/2000/svg" aria-labelledby="pi-scalapay"><title id="pi-scalapay">Scalapay</title><rect width="38" height="24" rx="3" fill="#F7CBCF"/><path fill-rule="evenodd" clip-rule="evenodd" d="M4.058 11.387a.236.236 0 0 1 .009-.32l.91-.94a.24.24 0 0 1 .344 0l.696.72a.24.24 0 0 0 .345 0l.675-.7a.24.24 0 0 1 .345 0l.907.938c.085.088.089.227.008.32l-1.93 2.214a.24.24 0 0 1-.361 0l-1.948-2.232Zm5.257 1.53.363-.556c.19.18.483.287.766.287.201 0 .357-.101.357-.245 0-.437-1.354-.281-1.354-1.214 0-.556.519-.903 1.072-.903.362 0 .76.143.944.293l-.351.562a.92.92 0 0 0-.536-.197c-.207 0-.38.083-.38.233 0 .377 1.353.227 1.353 1.232 0 .556-.524.897-1.111.897-.386 0-.795-.137-1.123-.388Zm4.884-.711.576.448c-.329.455-.743.652-1.267.652-.864 0-1.498-.67-1.498-1.507 0-.843.651-1.513 1.503-1.513.484 0 .916.233 1.175.58l-.53.485a.8.8 0 0 0-.645-.347c-.431 0-.754.353-.754.795 0 .455.317.79.772.79a.813.813 0 0 0 .668-.383Zm3.081.024v-.868a.849.849 0 0 0-.691-.358c-.438 0-.72.376-.72.795 0 .455.317.79.737.79a.81.81 0 0 0 .674-.36Zm.749-1.884v2.9h-.72v-.233c-.23.204-.495.293-.778.293-.414 0-.806-.191-1.054-.49a1.593 1.593 0 0 1-.357-1.017c0-.855.61-1.513 1.371-1.513.317 0 .6.107.818.293v-.233h.72ZM19.642 9v4.246h-.75V9h.75Zm2.793 3.23v-.868a.849.849 0 0 0-.691-.358c-.438 0-.72.376-.72.795 0 .455.317.79.737.79a.81.81 0 0 0 .674-.36Zm.749-1.884v2.9h-.72v-.233c-.23.204-.496.293-.778.293-.415 0-.806-.191-1.054-.49a1.593 1.593 0 0 1-.357-1.017c0-.855.61-1.513 1.37-1.513.318 0 .6.107.819.293v-.233h.72Zm.864 4.336v-4.336h.72v.233a1.25 1.25 0 0 1 .817-.293c.76 0 1.371.658 1.371 1.513 0 .395-.132.754-.351 1.017-.248.299-.645.49-1.06.49a1.15 1.15 0 0 1-.749-.263v1.639h-.748Zm.748-3.32v.868a.81.81 0 0 0 .674.358c.42 0 .737-.334.737-.789 0-.419-.282-.795-.72-.795a.849.849 0 0 0-.69.358Zm4.78.868v-.868a.849.849 0 0 0-.69-.358c-.438 0-.72.376-.72.795 0 .455.316.79.737.79a.81.81 0 0 0 .674-.36Zm.75-1.884v2.9h-.72v-.233c-.23.204-.496.293-.778.293-.415 0-.806-.191-1.054-.49a1.593 1.593 0 0 1-.357-1.017c0-.855.61-1.513 1.37-1.513.317 0 .6.107.819.293v-.233h.72Zm1.75 4.336h-.783l.772-1.729-1.25-2.607h.824l.817 1.74.755-1.74H34l-1.924 4.336Z" fill="#272727"/></svg>
